icons/svg/book-add-2.svg

<svg width="24" height="24" viewBox="0 0 24 24" fill="none" xmlns="http://www.w3.org/2000/svg">
<path d="M4.49997 18.7485V5.94853C4.49997 4.82843 4.49997 4.26838 4.71796 3.84055C4.9097 3.46423 5.21566 3.15827 5.59199 2.96652C6.01981 2.74854 6.57986 2.74854 7.69997 2.74854H16.3C17.4201 2.74854 17.9802 2.74854 18.408 2.96652C18.7844 3.15827 19.0903 3.46423 19.2821 3.84055C19.5 4.26838 19.5 4.82843 19.5 5.94854V10.2501M4.49997 18.7485C4.49997 19.216 4.49997 19.4498 4.53886 19.6441C4.69728 20.4356 5.31596 21.0543 6.10745 21.2127C6.30178 21.2516 6.53552 21.2516 7.003 21.2516H10.25M4.49997 18.7485H9.25003M8.96001 9.25005H15.04C15.376 9.25005 15.5441 9.25005 15.6724 9.18466C15.7853 9.12713 15.8771 9.03534 15.9346 8.92245C16 8.7941 16 8.62608 16 8.29005V7.21005C16 6.87402 16 6.706 15.9346 6.57766C15.8771 6.46476 15.7853 6.37297 15.6724 6.31545C15.5441 6.25005 15.376 6.25005 15.04 6.25005H8.96001C8.62398 6.25005 8.45596 6.25005 8.32761 6.31545C8.21472 6.37297 8.12293 6.46476 8.0654 6.57766C8.00001 6.706 8.00001 6.87402 8.00001 7.21005V8.29005C8.00001 8.62608 8.00001 8.7941 8.0654 8.92245C8.12293 9.03534 8.21472 9.12713 8.32761 9.18466C8.45596 9.25005 8.62398 9.25005 8.96001 9.25005Z" stroke="currentColor" stroke-width="1.5" stroke-linecap="round" stroke-linejoin="round"/>
<path fill-rule="evenodd" clip-rule="evenodd" d="M17.5 23C20.5376 23 23 20.5376 23 17.5C23 14.4624 20.5376 12 17.5 12C14.4624 12 12 14.4624 12 17.5C12 20.5376 14.4624 23 17.5 23ZM17.5 14.0066C17.7761 14.0066 18 14.2304 18 14.5066V17.0001H20.4934C20.7696 17.0001 20.9934 17.2239 20.9934 17.5001C20.9934 17.7762 20.7696 18.0001 20.4934 18.0001H18V20.4934C18 20.7696 17.7761 20.9934 17.5 20.9934C17.2239 20.9934 17 20.7696 17 20.4934V18.0001H14.5066C14.2304 18.0001 14.0066 17.7762 14.0066 17.5001C14.0066 17.2239 14.2304 17.0001 14.5066 17.0001H17V14.5066C17 14.2304 17.2239 14.0066 17.5 14.0066Z" fill="currentColor"/>
</svg>

<svg xmlns="http://www.w3.org/2000/svg" width="24" height="24" fill="none" viewBox="0 0 24 24"><path stroke="currentColor" stroke-linecap="round" stroke-linejoin="round" stroke-width="1.5" d="M4.5 18.749v-12.8c0-1.12 0-1.68.218-2.108a2 2 0 0 1 .874-.874c.428-.218.988-.218 2.108-.218h8.6c1.12 0 1.68 0 2.108.218a2 2 0 0 1 .874.874c.218.427.218.987.218 2.108v4.301m-15 8.499c0 .467 0 .7.039.895a2 2 0 0 0 1.568 1.569c.195.039.429.039.896.039h3.247M4.5 18.749h4.75M8.96 9.25h6.08c.336 0 .504 0 .632-.065a.6.6 0 0 0 .263-.263C16 8.794 16 8.626 16 8.29V7.21c0-.336 0-.504-.065-.632a.6.6 0 0 0-.263-.263c-.128-.065-.296-.065-.632-.065H8.96c-.336 0-.504 0-.632.065a.6.6 0 0 0-.263.263C8 6.706 8 6.874 8 7.21v1.08c0 .336 0 .504.065.632a.6.6 0 0 0 .263.263c.128.065.296.065.632.065"/><path fill="currentColor" fill-rule="evenodd" d="M17.5 23a5.5 5.5 0 1 0 0-11 5.5 5.5 0 0 0 0 11m0-8.993a.5.5 0 0 1 .5.5V17h2.493a.5.5 0 1 1 0 1H18v2.493a.5.5 0 1 1-1 0V18h-2.493a.5.5 0 1 1 0-1H17v-2.493a.5.5 0 0 1 .5-.5" clip-rule="evenodd"/></svg>
